assets/images/button-trashmag_white.svg

<svg width="420" height="110" viewBox="0 0 420 110" fill="none" xmlns="http://www.w3.org/2000/svg">
<rect x="0.75" y="0.75" width="418.5" height="108.5" stroke="white" stroke-width="1.5"/>
<path d="M305.39 71.6343H298.385V49.5783H298.213L289.446 71.6343H281.28L272.556 49.5783H272.384V71.6343H265.379V38.9531H275.221L285.32 64.1312H285.492L295.592 38.9531H305.39V71.6343Z" stroke="white" stroke-width="1.5"/>
<path d="M334.872 64.7858H319.014L316.134 71.5839H308.184L322.409 38.9531H331.434L345.702 71.5839H337.795L334.872 64.7858ZM332.122 58.441L327.007 46.4058H326.836L321.721 58.441H332.122Z" stroke="white" stroke-width="1.5"/>
<path d="M381.331 52.8012V55.9736C381.331 66.347 373.337 72.0876 363.238 72.0876C353.052 72.0876 344.672 66.6995 344.672 55.5204C344.672 44.996 352.408 38.5 362.937 38.5C371.403 38.5 378.924 42.1256 380.386 49.1755H372.392C370.931 46.8088 367.665 45.7009 363.195 45.7009C356.963 45.7009 352.322 49.1252 352.322 55.5204C352.322 62.5703 357.436 65.0377 363.152 65.0377C368.137 65.0377 372.693 63.1242 373.423 58.8943H362.636V52.8012H381.331Z" stroke="white" stroke-width="1.5"/>
<g clip-path="url(#clip0)">
<path d="M77.1511 45.2771H61.7114V72.5044H52.3322V45.2771H36.8926V37.7249H77.1511V45.2771Z" fill="white"/>
<path d="M118.509 71.6074V72.5003H109.126C108.43 71.3576 107.984 69.6702 107.984 67.5815V63.8545C107.984 61.4709 106.642 60.2259 103.667 60.2259H89.1233V72.4962H80.0879V37.7249H105.455C115.035 37.7249 118.362 42.5453 118.362 47.9105C118.362 52.731 115.432 55.2621 111.908 56.1098V56.3105C116.029 56.7569 117.568 59.2921 117.568 62.4211V66.9426C117.564 68.8757 117.813 70.219 118.509 71.6074ZM108.827 49.1023C108.827 46.2191 106.793 44.9781 103.863 44.9781H89.1192V53.075H103.863C106.891 53.075 108.827 51.8341 108.827 49.1023Z" fill="white"/>
<path d="M154.273 65.247H134.516L130.939 72.5044H121.012L138.735 37.7249H150.005L167.777 72.5044H157.898L154.273 65.247ZM150.843 58.4402L144.443 45.6252H144.243L137.888 58.4443H150.843V58.4402Z" fill="white"/>
<path d="M185.516 44.5317C180.454 44.5317 176.682 45.4778 176.682 47.7098C176.682 49.8477 178.769 50.7406 187.554 51.2853C200.956 52.1781 205.973 55.8068 205.973 62.5153C205.973 71.161 195.747 73 186.314 73C175.941 73 166.656 69.572 165.764 60.6805H175.343C176.186 64.6532 181.797 65.5993 186.859 65.5993C192.072 65.5993 196.34 64.8539 196.34 62.4211C196.34 60.1849 194.703 59.2921 185.967 58.6941C174.103 57.8996 167.053 55.1679 167.053 48.3119C167.053 39.5679 176.534 37.2334 185.619 37.2334C195.448 37.2334 205.028 40.1167 205.973 49.3071H196.541C195.546 45.6744 191.029 44.5317 185.516 44.5317Z" fill="white"/>
<path d="M250.025 37.7249V72.5044H240.74V58.5917H217.705V72.5044H208.371V37.7249H217.705V50.8429H240.74V37.7249H250.025Z" fill="white"/>
<path d="M36.9739 35.8437L36 27.9024L75.8984 23L76.8723 30.9413L36.9739 35.8437Z" fill="url(#paint0_linear)"/>
</g>
<defs>
<linearGradient id="paint0_linear" x1="75.7194" y1="27.0265" x2="37.2923" y2="31.7922" gradientUnits="userSpaceOnUse">
<stop stop-color="#BB68FD"/>
<stop offset="0.1099" stop-color="#9B85FF"/>
<stop offset="0.257" stop-color="#77CCE6"/>
<stop offset="0.3974" stop-color="#8EFFA7"/>
<stop offset="0.6231" stop-color="#F1FF6B"/>
<stop offset="0.8119" stop-color="#F0AF59"/>
<stop offset="1" stop-color="#FF6E97"/>
</linearGradient>
<clipPath id="clip0">
<rect x="29" y="23" width="221" height="51.6623" fill="white"/>
</clipPath>
</defs>
</svg>

<svg fill="none" height="110" width="420" xmlns="http://www.w3.org/2000/svg"><linearGradient id="b" gradientUnits="userSpaceOnUse" x1="75.719" x2="37.292" y1="27.026" y2="31.792"><stop offset="0" stop-color="#bb68fd"/><stop offset=".11" stop-color="#9b85ff"/><stop offset=".257" stop-color="#77cce6"/><stop offset=".397" stop-color="#8effa7"/><stop offset=".623" stop-color="#f1ff6b"/><stop offset=".812" stop-color="#f0af59"/><stop offset="1" stop-color="#ff6e97"/></linearGradient><clipPath id="a"><path d="M29 23h221v51.662H29z"/></clipPath><path d="M.75.75h418.5v108.5H.75z" stroke="#fff" stroke-width="1.5"/><path d="M305.39 71.634h-7.005V49.578h-.172l-8.767 22.056h-8.166l-8.724-22.056h-.172v22.056h-7.005v-32.68h9.842L285.32 64.13h.172l10.1-25.178h9.798v32.681zm29.482-6.848h-15.858l-2.88 6.798h-7.95l14.225-32.63h9.025l14.268 32.63h-7.907zm-2.75-6.345l-5.115-12.035h-.171l-5.115 12.035zm49.209-5.64v3.173c0 10.373-7.994 16.114-18.093 16.114-10.186 0-18.566-5.388-18.566-16.568 0-10.524 7.736-17.02 18.265-17.02 8.466 0 15.987 3.626 17.449 10.675h-7.994c-1.461-2.366-4.727-3.474-9.197-3.474-6.232 0-10.873 3.424-10.873 9.82 0 7.05 5.114 9.517 10.83 9.517 4.985 0 9.541-1.914 10.271-6.144h-10.787v-6.093z" stroke="#fff" stroke-width="1.5"/><g clip-path="url(#a)"><path d="M77.151 45.277h-15.44v27.227h-9.379V45.277h-15.44v-7.552h40.26v7.552zm41.358 26.33v.893h-9.383c-.696-1.142-1.142-2.83-1.142-4.918v-3.727c0-2.384-1.342-3.63-4.317-3.63H89.123v12.271h-9.035V37.725h25.367c9.58 0 12.907 4.82 12.907 10.185 0 4.821-2.93 7.352-6.454 8.2v.2c4.121.447 5.66 2.982 5.66 6.111v4.522c-.004 1.933.245 3.276.941 4.664zm-9.682-22.505c0-2.883-2.034-4.124-4.964-4.124H89.119v8.097h14.744c3.028 0 4.964-1.24 4.964-3.973zm45.446 16.145h-19.757l-3.577 7.257h-9.927l17.723-34.78h11.27l17.772 34.78h-9.879zm-3.43-6.807l-6.4-12.815h-.2l-6.355 12.82h12.955zm34.673-13.908c-5.062 0-8.834.946-8.834 3.178 0 2.138 2.087 3.03 10.872 3.575 13.402.893 18.419 4.522 18.419 11.23 0 8.646-10.226 10.485-19.659 10.485-10.373 0-19.658-3.428-20.55-12.32h9.579c.843 3.973 6.454 4.92 11.516 4.92 5.213 0 9.481-.746 9.481-3.179 0-2.236-1.637-3.129-10.373-3.727-11.864-.794-18.914-3.526-18.914-10.382 0-8.744 9.481-11.079 18.566-11.079 9.829 0 19.409 2.884 20.354 12.074h-9.432c-.995-3.633-5.512-4.775-11.025-4.775zm64.509-6.807v34.78h-9.285V58.591h-23.035v13.912h-9.334v-34.78h9.334v13.119h23.035V37.725z" fill="#fff"/><path d="M36.974 35.844L36 27.902 75.898 23l.974 7.941z" fill="url(#b)"/></g></svg>
